frontend/flai_app/public/assets/icons/FLAI_Warnung.svg

<?xml version="1.0" encoding="UTF-8"?>
<svg xmlns="http://www.w3.org/2000/svg" xmlns:xlink="http://www.w3.org/1999/xlink" width="px" height="40px" viewBox="0 0 40 40" version="1.1">
<g id="surface1">
<path style="fill:none;stroke-width:5.42;stroke-linecap:butt;stroke-linejoin:miter;stroke:rgb(0%,0%,0%);stroke-opacity:1;stroke-miterlimit:4;" d="M 88.963379 62.494531 C 88.963379 59.395898 86.435547 56.868066 83.336914 56.868066 C 80.221973 56.868066 77.710449 59.395898 77.710449 62.494531 L 77.710449 104.162988 C 77.710449 107.27793 80.221973 109.789453 83.336914 109.789453 C 86.435547 109.789453 88.963379 107.27793 88.963379 104.162988 Z M 88.963379 62.494531 " transform="matrix(0.239521,0,0,0.239521,0,0)"/>
<path style="fill:none;stroke-width:4.58;stroke-linecap:butt;stroke-linejoin:miter;stroke:rgb(0%,0%,0%);stroke-opacity:1;stroke-miterlimit:4;" d="M 81.249414 118.954883 L 85.424414 118.954883 C 87.609766 118.954883 89.371094 120.73252 89.371094 122.917871 C 89.371094 125.103223 87.609766 126.880859 85.424414 126.880859 L 81.249414 126.880859 C 79.064062 126.880859 77.286426 125.103223 77.286426 122.917871 C 77.286426 120.73252 79.064062 118.954883 81.249414 118.954883 Z M 81.249414 118.954883 " transform="matrix(0.239521,0,0,0.239521,0,0)"/>
</g>
</svg>

<?xml version="1.0" encoding="UTF-8" standalone="no"?><!DOCTYPE svg PUBLIC "-//W3C//DTD SVG 1.1//EN" "http://www.w3.org/Graphics/SVG/1.1/DTD/svg11.dtd"><svg width="100%" height="100%" viewBox="0 0 167 167" version="1.1" xmlns="http://www.w3.org/2000/svg" xmlns:xlink="http://www.w3.org/1999/xlink" xml:space="preserve" xmlns:serif="http://www.serif.com/" style="fill-rule:evenodd;clip-rule:evenodd;"><path d="M88.958,62.5c0,-3.105 -2.52,-5.625 -5.625,-5.625c-3.104,0 -5.625,2.52 -5.625,5.625l0,41.667c0,3.104 2.521,5.625 5.625,5.625c3.105,-0 5.625,-2.521 5.625,-5.625l0,-41.667Z" style="fill:none;stroke:#000;stroke-width:5.42px;"/><path d="M81.25,118.958l4.167,0c2.186,0 3.958,1.772 3.958,3.959c0,2.186 -1.772,3.958 -3.958,3.958l-4.167,0c-2.186,0 -3.958,-1.772 -3.958,-3.958c-0,-2.187 1.772,-3.959 3.958,-3.959Z" style="fill:none;fill-rule:nonzero;stroke:#000;stroke-width:4.58px;"/></svg>
